X:1
T:Title
%%score { ( 1 2 ) | ( 3 4 ) }
L:1/8
M:4/4
K:Db
V:1 treble nm="Grand Piano"
V:2 treble 
V:3 bass 
V:4 bass 
V:1
 z4 z2[Q:1/4=108] z F | [FA]2 [FA]2 [GB]2 [Gc]2 | [Fd]4 [Ac]2 [GB]2 | [FA]2 [DGB]2 [CEG]2 [A,CA]2 | %4
 [A,DF]6 D-[DF] | [FA]2 [FA]2 [GB]2 [Gc]2 | [Fd]4 [FA]2 [Fd]2 | c2 B2 F2 =G2 | [CA]6 [CA]2 | %9
 G2 G2 c2 B2 | [FB]4 [FA]2 [FA]2 | [GB]3 [GB] [=Ge]2 [Gd]2 | c6 A2 | [Ad]3 [Ad] e2 e2 | f4 e2 d2 | %15
 d2 c2 B2 c2 |[M:2/4] [Fd]4 | z4 |[M:4/4] z z/ [CE]/ [CE]>[CE] [CE]2 [CEG]2 | %19
 [A,EG]2 [A,DF]2 z z/ B/ B>B | B6 z2 |[M:2/4] d2 c2 | z z/ A/ A>A |[M:4/4] d6 z2 | e6 z2 | %25
 f3 e d2 [Ec]2 |[M:3/4] [Fd]6 |] %27
V:2
 z4 z2 D2 | x8 | x8 | x8 | z4 z2 .F,2 | x8 | x8 | x8 | x8 | x8 | x8 | x8 | x8 | x8 | x8 | x8 | %16
[M:2/4] x4 | x4 |[M:4/4] x8 | x8 | z z/ G/ G>G G2 [=Gd]2 |[M:2/4] x4 | x4 | %23
[M:4/4] z z/ A/ A>A A>A A>A | z z/ A/ A>A A2 A2 | x8 |[M:3/4] x6 |] %27
V:3
 z4 z2 F,A, | [D,D]2 [D,D]2 [D,B,]2 [D,B,]2 | [D,A,]4 [D,A,]2 [D,D]2 | [D,D]2 G,,2 A,,2 A,,2 | %4
 D,6 z A, | [D,D]2 [D,D]2 [G,D]2 [E,A,]2 | [D,A,]4 [D,D]2 [D,A,]2 | %7
 [E,A,E]2 [E,=G,D]2 [E,A,D]2 [E,B,D]2 | [A,,A,]6 [A,,A,]2 | [A,CE]2 [A,CE]2 [A,EG]2 [A,CG]2 | %10
 [D,D]4 [D,D]2 [D,D]2 | [G,D]3 [G,B,] [E,B,]2 [E,E]2 | [A,EA]6 [G,C]2 | %13
 [F,D]3 [F,D][K:treble] [A,CA]2 [A,CA]2 | [DA]4 [G,B,G]2 [=G,B,_F]2 | %15
 [A,F]2 [A,EA]2 [A,D=G]2 [A,C_G]2 |[M:2/4][K:bass] [D,A,]4 | z z/[K:treble] A/ A>A | %18
[M:4/4] A6[K:bass] z2 | D,2 D,2 z4 | z z/ [G,D]/ [G,D]>[G,D] [G,D]2 [E,E]2 | %21
[M:2/4][K:treble] [A,EA]2 [A,EA]2 | z4 |[M:4/4] z z/[K:bass] [F,D]/ [F,D]>[F,D] [F,D]2 z2 | %24
 z z/ C/ [A,C]>[A,C] [A,C]2 z2 | [DA]3 [G,B,G] [A,F]2[K:bass] [A,,A,]2 |[M:3/4] [D,A,]6 |] %27
V:4
 z4 z2 D,2 | x8 | x8 | x8 | z4 z2 D,2 | x8 | x8 | x8 | x8 | x8 | x8 | x8 | x8 | x4[K:treble] x4 | %14
 x8 | x8 |[M:2/4][K:bass] x4 | x3/2[K:treble] x5/2 |[M:4/4] z z/[K:bass] A,,/ A,,>A,, A,,2 A,,2 | %19
 x8 | x8 |[M:2/4][K:treble] x4 | x4 |[M:4/4] x3/2[K:bass] x13/2 | x8 | x6[K:bass] x2 |[M:3/4] x6 |] %27

